; generated by PrusaSlicer 2.4.1+x64 on 2022-03-29 at 20:44:22 UTC

; 

; external perimeters extrusion width = 0.60mm
; perimeters extrusion width = 0.50mm
; infill extrusion width = 0.50mm
; solid infill extrusion width = 0.50mm
; top infill extrusion width = 0.45mm
; first layer extrusion width = 0.42mm

; external perimeters extrusion width = 0.60mm
; perimeters extrusion width = 0.50mm
; infill extrusion width = 0.50mm
; solid infill extrusion width = 0.50mm
; top infill extrusion width = 0.45mm
; first layer extrusion width = 0.42mm

; external perimeters extrusion width = 0.60mm
; perimeters extrusion width = 0.50mm
; infill extrusion width = 0.50mm
; solid infill extrusion width = 0.50mm
; top infill extrusion width = 0.45mm
; first layer extrusion width = 0.42mm

; external perimeters extrusion width = 0.60mm
; perimeters extrusion width = 0.50mm
; infill extrusion width = 0.50mm
; solid infill extrusion width = 0.50mm
; top infill extrusion width = 0.45mm
; first layer extrusion width = 0.42mm

; external perimeters extrusion width = 0.60mm
; perimeters extrusion width = 0.50mm
; infill extrusion width = 0.50mm
; solid infill extrusion width = 0.50mm
; top infill extrusion width = 0.45mm
; first layer extrusion width = 0.42mm

; external perimeters extrusion width = 0.60mm
; perimeters extrusion width = 0.50mm
; infill extrusion width = 0.50mm
; solid infill extrusion width = 0.50mm
; top infill extrusion width = 0.45mm
; first layer extrusion width = 0.42mm

; external perimeters extrusion width = 0.60mm
; perimeters extrusion width = 0.50mm
; infill extrusion width = 0.50mm
; solid infill extrusion width = 0.50mm
; top infill extrusion width = 0.45mm
; first layer extrusion width = 0.42mm

; external perimeters extrusion width = 0.60mm
; perimeters extrusion width = 0.50mm
; infill extrusion width = 0.50mm
; solid infill extrusion width = 0.50mm
; top infill extrusion width = 0.45mm
; first layer extrusion width = 0.42mm

; external perimeters extrusion width = 0.60mm
; perimeters extrusion width = 0.50mm
; infill extrusion width = 0.50mm
; solid infill extrusion width = 0.50mm
; top infill extrusion width = 0.45mm
; first layer extrusion width = 0.42mm

; external perimeters extrusion width = 0.60mm
; perimeters extrusion width = 0.50mm
; infill extrusion width = 0.50mm
; solid infill extrusion width = 0.50mm
; top infill extrusion width = 0.45mm
; first layer extrusion width = 0.42mm

; external perimeters extrusion width = 0.60mm
; perimeters extrusion width = 0.50mm
; infill extrusion width = 0.50mm
; solid infill extrusion width = 0.50mm
; top infill extrusion width = 0.45mm
; first layer extrusion width = 0.42mm

; external perimeters extrusion width = 0.60mm
; perimeters extrusion width = 0.50mm
; infill extrusion width = 0.50mm
; solid infill extrusion width = 0.50mm
; top infill extrusion width = 0.45mm
; first layer extrusion width = 0.42mm

; external perimeters extrusion width = 0.60mm
; perimeters extrusion width = 0.50mm
; infill extrusion width = 0.50mm
; solid infill extrusion width = 0.50mm
; top infill extrusion width = 0.45mm
; first layer extrusion width = 0.42mm

M73 P0 R165
M73 Q0 S165
M201 X1000 Y1000 Z200 E5000 ; sets maximum accelerations, mm/sec^2
M203 X200 Y200 Z12 E120 ; sets maximum feedrates, mm / sec
M204 P1250 R1250 T1250 ; sets acceleration (P, T) and retract acceleration (R), mm/sec^2
M205 X8.00 Y8.00 Z0.40 E4.50 ; sets the jerk limits, mm/sec
M205 S0 T0 ; sets the minimum extruding and travel feed rate, mm/sec
M107
;TYPE:Custom
M862.3 P "MK3S" ; printer model check
M862.1 P0.4 ; nozzle diameter check
M115 U3.10.1 ; tell printer latest fw version
G90 ; use absolute coordinates
M83 ; extruder relative mode
M104 S215 ; set extruder temp
M140 S60 ; set bed temp
M190 S60 ; wait for bed temp
M109 S215 ; wait for extruder temp
G28 W ; home all without mesh bed level
G80 ; mesh bed leveling
G1 Z0.2 F720
G1 Y-3 F1000 ; go outside print area
G92 E0
G1 X60 E9 F1000 ; intro line
G1 X100 E12.5 F1000 ; intro line
G92 E0
M221 S95

; Don't change E values below. Excessive value can damage the printer.

M907 E538 ; set extruder motor current
G21 ; set units to millimeters
G90 ; use absolute coordinates
M83 ; use relative distances for extrusion
M900 K0.05 ; Filament gcode LA 1.5
M900 K30 ; Filament gcode LA 1.0
M107
;LAYER_CHANGE
;Z:0.2
;HEIGHT:0.2
;BEFORE_LAYER_CHANGE
G92 E0.0
;0.2


G1 E-.8 F2100
G1 Z.4 F720
;AFTER_LAYER_CHANGE
;0.2
G1 X44.152 Y54.883 F10800
G1 Z.2 F720
G1 E.8 F2100
M204 S800
;TYPE:Skirt/Brim
;WIDTH:0.42
G1 F1200
G1 X45.786 Y54.187 E.05567
G1 X133.029 Y52.454 E2.736
G1 X211.901 Y52.454 E2.47298
G1 X213.582 Y53.15 E.05704
G1 X219.07 Y58.638 E.24333
G1 X219.588 Y59.416 E.02932
G1 X240.468 Y110.303 E1.72462
G1 X240.646 Y111.206 E.02884
G1 X240.646 Y190.031 E2.4715
G1 X239.949 Y191.712 E.05704
G1 X234.462 Y197.199 E.24333
G1 X232.794 Y197.895 E.05667
G1 X126.444 Y198.471 E3.33456
G1 X27.606 Y198.471 E3.09899
M73 P0 R164
G1 X25.926 Y197.775 E.05704
G1 X20.438 Y192.287 E.24333
G1 X19.742 Y190.607 E.05704
G1 X19.742 Y111.782 E2.4715
G1 X19.887 Y110.964 E.02605
G1 X38.113 Y61.233 E1.66069
G1 X38.665 Y60.37 E.0321
G1 X44.11 Y54.925 E.24144
M204 S1000
;WIPE_START
G1 F8640
G1 X45.786 Y54.187 E-.42288
G1 X47.245 Y54.158 E-.33712
;WIPE_END
G1 E-.04 F2100
G1 Z.6 F720
G1 X45.363 Y57.642 F10800
G1 Z.2 F720
G1 E.8 F2100
M204 S800
G1 F1200
G1 X46.862 Y56.95 E.05178
G1 X47.65 Y56.85 E.02489
G1 X122.949 Y56.854 E2.36095
G1 X124.182 Y57.124 E.03958
G1 X125.339 Y57.729 E.04094
G1 X126.437 Y58.811 E.04834
G1 X126.943 Y59.733 E.03297
G1 X127.716 Y60.142 E.02741
G1 X128.235 Y60.588 E.02146
G1 X128.367 Y60.281 E.01046
G1 X128.922 Y59.418 E.03216
G1 X129.93 Y58.471 E.04337
G1 X130.784 Y58.017 E.03033
G1 X131.336 Y57.026 E.03555
G1 X132.348 Y56.029 E.04457
G1 X133.881 Y55.283 E.05343
G1 X134.837 Y55.121 E.03041
G1 X210.234 Y55.126 E2.36402
G1 X211.425 Y55.392 E.03827
M73 Q0 S164
G1 X212.534 Y55.96 E.03906
G1 X213.679 Y57.076 E.05013
G1 X214.186 Y58 E.03304
G1 X214.989 Y58.43 E.02855
G1 X215.85 Y59.179 E.03579
G1 X216.681 Y60.436 E.04727
G1 X217.097 Y61.958 E.04946
G1 X216.985 Y78.178 E.50856
G1 X216.603 Y79.196 E.03411
G1 X216.047 Y80.054 E.03205
G1 X215.043 Y80.994 E.04312
G1 X214.194 Y81.445 E.03016
G1 X213.641 Y82.437 E.03559
G1 X212.573 Y83.473 E.04664
G1 X210.928 Y84.229 E.05678
G1 X210.084 Y84.345 E.0267
G1 X187.589 Y84.345 E.70534
G1 X187.521 Y84.636 E.00937
G1 X187.778 Y84.763 E.00902
G1 X188.848 Y85.627 E.04311
G1 X189.714 Y86.908 E.04846
G1 X190.138 Y88.441 E.04989
G1 X190.068 Y91.972 E.11073
G1 X189.695 Y93.101 E.03727
G1 X189.077 Y94.074 E.03615
G1 X188.26 Y94.865 E.03566
G1 X187.319 Y95.428 E.03437
G1 X185.764 Y95.845 E.05047
G1 X180.416 Y95.845 E.16768
G1 X179.719 Y96.467 E.02931
G1 X178.929 Y96.897 E.02819
G1 X177.463 Y97.282 E.04754
G1 X171.576 Y97.227 E.18459
G1 X170.298 Y96.814 E.04209
G1 X169.441 Y96.279 E.03169
G1 X169.09 Y95.937 E.01536
G1 X168.443 Y96.838 E.03477
G1 X167.672 Y97.554 E.03299
G1 X166.784 Y98.072 E.03224
G1 X165.286 Y98.476 E.04864
G1 X159.53 Y98.448 E.18048
G1 X158.019 Y97.967 E.0497
G1 X157.083 Y97.335 E.03543
G1 X156.323 Y96.526 E.0348
G1 X155.787 Y95.589 E.03384
G1 X155.403 Y94.134 E.04719
G1 X155.433 Y91.635 E.07834
G1 X155.119 Y91.579 E.01001
G1 X154.826 Y92.396 E.02722
G1 X154.137 Y93.369 E.03739
G1 X153.411 Y94.031 E.03081
G1 X152.567 Y94.527 E.03067
G1 X150.982 Y94.952 E.05148
G1 X145.441 Y94.943 E.17371
G1 X144.119 Y94.545 E.04329
G1 X143.669 Y95.743 E.04013
G1 X143.081 Y96.536 E.03094
G1 X142.369 Y97.194 E.03039
G1 X141.406 Y97.748 E.03485
G1 X140.012 Y98.123 E.04524
G1 X134.371 Y98.127 E.17689
G1 X132.619 Y97.582 E.05752
G1 X132.174 Y97.283 E.01682
G1 X131.461 Y97.924 E.03007
G1 X130.604 Y98.415 E.03097
G1 X129.218 Y98.799 E.0451
G1 X123.529 Y98.81 E.17835
G1 X121.671 Y98.211 E.06121
G1 X120.837 Y97.602 E.03241
G1 X120.331 Y97.054 E.02336
G1 X119.543 Y98.101 E.04109
G1 X118.779 Y98.778 E.032
G1 X117.879 Y99.273 E.03223
G1 X116.582 Y99.623 E.04209
G1 X110.889 Y99.635 E.17851
G1 X109.143 Y99.094 E.05731
G1 X108.169 Y98.403 E.03743
G1 X107.485 Y97.646 E.03202
G1 X107.081 Y96.966 E.02479
G1 X106.487 Y97.303 E.02143
G1 X104.992 Y97.706 E.04853
G1 X99.395 Y97.704 E.17549
G1 X98.06 Y97.301 E.04374
G1 X97.403 Y98.178 E.03437
G1 X96.61 Y98.886 E.03333
G1 X95.706 Y99.382 E.03232
G1 X94.411 Y99.729 E.04205
G1 X88.651 Y99.73 E.1806
G1 X86.786 Y99.1 E.06171
G1 X86.021 Y98.526 E.02999
G1 X85.397 Y97.856 E.02871
G1 X84.857 Y96.96 E.03282
G1 X84.43 Y95.406 E.05053
G1 X84.466 Y92.117 E.10312
G1 X85.077 Y90.378 E.0578
G1 X85.65 Y89.617 E.02987
G1 X86.381 Y88.947 E.0311
G1 X87.265 Y88.433 E.03206
G1 X88.762 Y88.029 E.04862
G1 X94.23 Y88.026 E.17145
G1 X95.303 Y88.237 E.03426
G1 X95.716 Y88.414 E.01411
G1 X96.34 Y87.566 E.03298
G1 X97.068 Y86.903 E.03088
G1 X98.03 Y86.355 E.03471
G1 X97.956 Y86.075 E.0091
G1 X47.511 Y86.077 E1.58166
G1 X46.003 Y85.679 E.0489
G1 X44.692 Y84.825 E.04905
G1 X43.944 Y83.964 E.03577
G1 X43.513 Y83.158 E.02864
G1 X42.541 Y82.617 E.03489
G1 X41.542 Y81.604 E.04461
G1 X40.731 Y79.845 E.06071
G1 X40.631 Y79.048 E.02518
G1 X40.75 Y63 E.50318
G1 X41.168 Y61.928 E.03609
G1 X41.746 Y61.071 E.03243
G1 X42.691 Y60.2 E.04028
G1 X43.54 Y59.749 E.03015
G1 X44.092 Y58.759 E.03554
G1 X45.105 Y57.76 E.0446
G1 X45.308 Y57.667 E.007
M204 S1000
G1 X45.461 Y57.999 F10800
M204 S800
G1 F1200
G1 X46.939 Y57.32 E.05099
G1 X47.662 Y57.227 E.02286
G1 X122.928 Y57.231 E2.3599
G1 X124.074 Y57.487 E.03684
G1 X125.138 Y58.049 E.0377
G1 X126.151 Y59.058 E.04483
G1 X126.664 Y60.013 E.034
G1 X127.519 Y60.464 E.03031
G1 X128.4 Y61.239 E.03677
G1 X128.698 Y60.464 E.02602
G1 X129.198 Y59.677 E.02924
G1 X130.169 Y58.764 E.04178
G1 X131.06 Y58.298 E.03153
G1 X131.62 Y57.275 E.03658
G1 X132.59 Y56.32 E.04268
G1 X134.018 Y55.635 E.04966
G1 X134.852 Y55.498 E.02648
G1 X210.213 Y55.503 E2.36289
G1 X211.318 Y55.754 E.03553
G1 X212.334 Y56.282 E.03592
G1 X213.393 Y57.324 E.0466
G1 X213.908 Y58.28 E.03403
G1 X214.758 Y58.729 E.03015
G1 X215.583 Y59.446 E.03426
G1 X216.348 Y60.617 E.04387
G1 X216.726 Y62.031 E.04588
G1 X216.608 Y78.14 E.5051
G1 X216.259 Y79.041 E.03029
G1 X215.744 Y79.828 E.0295
G1 X214.806 Y80.7 E.04016
G1 X213.918 Y81.164 E.03142
G1 X213.358 Y82.186 E.03656
G1 X212.334 Y83.18 E.04472
G1 X210.849 Y83.859 E.05121
G1 X210.071 Y83.967 E.02462
G1 X152.536 Y83.967 E1.80398
G1 X153.843 Y85.044 E.05308
G1 X154.536 Y86.048 E.03825
G1 X154.953 Y87.342 E.04263
G1 X154.929 Y90.973 E.11385
G1 X154.502 Y92.201 E.04079
G1 X153.866 Y93.105 E.03466
G1 X153.202 Y93.716 E.02829
G1 X152.398 Y94.189 E.02923
G1 X150.957 Y94.575 E.04678
G1 X145.471 Y94.566 E.17203
G1 X143.888 Y94.078 E.05193
G1 X143.35 Y95.541 E.04888
G1 X142.789 Y96.296 E.0295
G1 X142.13 Y96.902 E.02807
G1 X141.283 Y97.391 E.03067
G1 X139.987 Y97.746 E.04213
G1 X134.4 Y97.75 E.17516
G1 X132.763 Y97.232 E.05385
G1 X132.112 Y96.775 E.02493
G1 X131.952 Y96.974 E.008
G1 X131.255 Y97.608 E.02954
G1 X130.437 Y98.075 E.02954
G1 X129.143 Y98.429 E.04207
G1 X123.559 Y98.433 E.17509
G1 X121.869 Y97.889 E.05564
G1 X121.075 Y97.309 E.03085
G1 X120.44 Y96.611 E.02959
G1 X120.182 Y96.193 E.0154
G1 X119.866 Y97.045 E.0285
G1 X119.278 Y97.833 E.03083
G1 X118.577 Y98.459 E.02946
G1 X117.758 Y98.916 E.0294
G1 X116.508 Y99.252 E.04057
G1 X110.917 Y99.257 E.17531
G1 X109.335 Y98.769 E.05191
G1 X108.435 Y98.135 E.03453
G1 X107.778 Y97.408 E.03073
G1 X107.372 Y96.713 E.02521
G1 X107.267 Y96.418 E.00983
G1 X106.362 Y96.946 E.03287
G1 X104.967 Y97.329 E.04535
G1 X99.425 Y97.327 E.17378
G1 X97.834 Y96.836 E.0522
G1 X97.699 Y97.153 E.01082
G1 X97.136 Y97.911 E.02959
G1 X96.407 Y98.567 E.03075
G1 X95.586 Y99.024 E.02947
G1 X94.337 Y99.359 E.04052
G1 X88.682 Y99.353 E.17731
G1 X86.989 Y98.78 E.05605
G1 X86.262 Y98.235 E.0285
G1 X85.686 Y97.614 E.02653
G1 X85.213 Y96.833 E.02864
G1 X84.808 Y95.383 E.04721
G1 X84.842 Y92.152 E.10129
G1 X85.395 Y90.582 E.05221
G1 X85.94 Y89.858 E.0284
G1 X86.62 Y89.239 E.02883
G1 X87.389 Y88.79 E.02793
G1 X88.788 Y88.406 E.04548
G1 X94.212 Y88.403 E.17005
G1 X95.207 Y88.603 E.03182
G1 X95.908 Y88.914 E.02407
G1 X96.026 Y88.63 E.00964
G1 X96.608 Y87.832 E.03096
G1 X97.306 Y87.197 E.02959
G1 X98.166 Y86.712 E.03095
G1 X99.467 Y86.37 E.04217
G1 X104.887 Y86.367 E.16995
G1 X105.917 Y86.578 E.03298
G1 X106.869 Y87.022 E.03291
G1 X107.803 Y87.81 E.03833
G1 X108.523 Y88.871 E.04021
G1 X108.651 Y89.213 E.01145
G1 X109.502 Y88.707 E.03107
G1 X110.894 Y88.308 E.0454
G1 X116.412 Y88.301 E.17301
G1 X117.411 Y88.509 E.032
G1 X118.369 Y88.96 E.03318
G1 X119.337 Y89.789 E.03997
G1 X119.86 Y90.551 E.02898
G1 X120.129 Y89.792 E.02526
G1 X120.682 Y89.004 E.03017
G1 X121.366 Y88.356 E.02955
G1 X122.291 Y87.82 E.03351
G1 X123.493 Y87.49 E.03911
G1 X129.137 Y87.485 E.17695
G1 X130.092 Y87.698 E.03068
G1 X130.918 Y88.076 E.02847
G1 X131.414 Y88.471 E.0199
G1 X131.607 Y88.228 E.00973
G1 X132.28 Y87.62 E.02844
G1 X133.09 Y87.155 E.02928
G1 X134.384 Y86.8 E.04207
M73 P0 R163
G1 X139.86 Y86.79 E.1717
G1 X140.852 Y86.987 E.03172
G1 X141.578 Y87.315 E.02498
G1 X142.074 Y85.865 E.04807
G1 X142.703 Y85.015 E.03316
G1 X143.313 Y84.463 E.02579
G1 X143.674 Y84.242 E.01326
G1 X143.597 Y83.967 E.00895
G1 X134.779 Y83.967 E.27646
G1 X133.374 Y83.59 E.04564
G1 X132.243 Y82.86 E.0422
G1 X131.514 Y82.04 E.03442
G1 X131.036 Y81.148 E.03171
G1 X130.077 Y80.632 E.03415
G1 X129.352 Y79.91 E.03208
G1 X129.037 Y80.731 E.02756
G1 X128.537 Y81.518 E.02924
G1 X127.565 Y82.431 E.04178
G1 X126.674 Y82.896 E.03153
G1 X126.114 Y83.92 E.03658
G1 X125.144 Y84.875 E.04268
G1 X123.716 Y85.559 E.04966
G1 X122.882 Y85.696 E.02648
G1 X47.536 Y85.7 E2.36243
G1 X46.13 Y85.323 E.04564
G1 X44.96 Y84.558 E.04384
G1 X44.243 Y83.733 E.03426
G1 X43.794 Y82.881 E.03019
G1 X42.789 Y82.332 E.03589
G1 X41.834 Y81.362 E.04269
G1 X41.102 Y79.769 E.05498
G1 X41.009 Y79.038 E.0231
G1 X41.126 Y63.055 E.50114
G1 X41.493 Y62.12 E.03152
G1 X42.019 Y61.332 E.02968
G1 X42.928 Y60.495 E.03876
G1 X43.817 Y60.031 E.03143
G1 X44.377 Y59.008 E.03658
G1 X45.347 Y58.052 E.04269
G1 X45.407 Y58.025 E.00207
M204 S1000
G1 X45.588 Y58.344 F10800
M204 S800
G1 F1200
G1 X47.016 Y57.69 E.04924
G1 X47.674 Y57.604 E.02083
G1 X122.906 Y57.608 E2.35884
G1 X123.965 Y57.849 E.03405
G1 X124.934 Y58.367 E.03445
G1 X125.863 Y59.302 E.04133
G1 X126.407 Y60.334 E.03658
G1 X126.57 Y60.389 E.00539
G1 X127.322 Y60.787 E.02667
G1 X128.106 Y61.484 E.03292
G1 X128.449 Y61.997 E.01933
G1 X128.713 Y61.922 E.00858
G1 X128.733 Y61.43 E.01546
G1 X129.028 Y60.647 E.02623
G1 X129.474 Y59.934 E.02636
G1 X130.407 Y59.057 E.04015
G1 X131.337 Y58.581 E.03276
G1 X131.906 Y57.523 E.03765
G1 X132.832 Y56.611 E.04076
G1 X134.154 Y55.988 E.04583
G1 X134.866 Y55.875 E.02261
G1 X210.15 Y55.875 E2.36047
G1 X211.21 Y56.116 E.03408
M73 P1 R163
M73 Q1 S164
G1 X212.133 Y56.602 E.03272
G1 X213.106 Y57.57 E.04306
G1 X213.651 Y58.602 E.03657
G1 X213.814 Y58.656 E.00541
G1 X214.528 Y59.028 E.02523
G1 X215.316 Y59.713 E.03274
G1 X215.993 Y60.745 E.03868
G1 X216.349 Y62.054 E.04254
G1 X216.244 Y78.035 E.50109
G1 X215.915 Y78.885 E.02857
G1 X215.443 Y79.601 E.02688
G1 X214.57 Y80.405 E.0372
G1 X213.641 Y80.881 E.03274
G1 X213.072 Y81.939 E.03765
G1 X212.146 Y82.851 E.04074
G1 X210.718 Y83.504 E.04924
G1 X210.06 Y83.59 E.02082
G1 X134.805 Y83.59 E2.35956
G1 X133.501 Y83.235 E.04237
G1 X132.508 Y82.59 E.03712
G1 X131.811 Y81.806 E.0329
G1 X131.414 Y81.056 E.02661
G1 X131.36 Y80.893 E.00538
G1 X130.281 Y80.314 E.03838
G1 X129.035 Y79.045 E.05575
G1 X129.002 Y79.764 E.02257
G1 X128.706 Y80.548 E.02624
G1 X128.26 Y81.26 E.02636
G1 X127.327 Y82.137 E.04015
G1 X126.397 Y82.614 E.03276
G1 X125.828 Y83.671 E.03765
G1 X124.903 Y84.584 E.04076
G1 X123.58 Y85.207 E.04583
G1 X122.868 Y85.319 E.02261
G1 X47.562 Y85.323 E2.36118
G1 X46.259 Y84.967 E.04235
M73 Q1 S163
G1 X45.228 Y84.291 E.03866
G1 X44.542 Y83.503 E.03274
G1 X44.171 Y82.789 E.02523
G1 X44.116 Y82.626 E.0054
G1 X43.038 Y82.047 E.03839
G1 X42.126 Y81.121 E.04074
G1 X41.472 Y79.692 E.04927
G1 X41.386 Y79.028 E.02102
G1 X41.49 Y63.159 E.49755
G1 X41.82 Y62.31 E.02857
